X: 1
T: Ruth & George O'Connor's Strathspey
C: David R Cunningham
R: strathspey
Z: 2013 John Chambers <jc:trillian.mit.edu>
M: C
L: 1/16
K: G
dc3 |:\
"G"B4 Bd3 "B7"F4 B3A | "Em"G3A BD3 "C"E8 |\
"Am"c3B A3c "G"B4 G3B | "Em"d3c Bd3 "Dsus4"[B4F4-][A4F4] |
"G"B4 Bd3 "Am7"c4 g4 | "D"f3g ad3 "G"B8 |\
"C"c4 ce3 "G"d2B2 G2D2 | "D7"DB3 B3A "G"G4 :|
|: Bd3 |\
"C"e4 eg3 "G"f3e dB3 | "Am"c3A "D7"Fe3 "G"d8 |\
"C"e3f ga3 "G"d3B G2A2 | "Em"Be3 d3B "Dm"A2B2 "G7"c2d2 |
"C"e4 eg3 "Bm"f4 d4 | "Em"g3f ed3 "Cmaj7"B4- ~B4 |\
"Am"c4 ce3 "G"d3B GD3 | "D7"DB3 B3A "G"G4 :|
